arcticons-light/symbolic/apps/diaspora-symbolic.svg

<?xml version="1.0" encoding="UTF-8" standalone="no"?>
<svg
   id="Layer_2"
   data-name="Layer 2"
   viewBox="0 0 48 48"
   version="1.1"
   sodipodi:docname="diaspora.svg"
   xmlns:inkscape="http://www.inkscape.org/namespaces/inkscape"
   xmlns:sodipodi="http://sodipodi.sourceforge.net/DTD/sodipodi-0.dtd"
   xmlns="http://www.w3.org/2000/svg"
   xmlns:svg="http://www.w3.org/2000/svg">
  <sodipodi:namedview
     id="namedview1"
     pagecolor="#ffffff"
     bordercolor="#666666"
     borderopacity="1.0"
     inkscape:showpageshadow="2"
     inkscape:pageopacity="0.0"
     inkscape:pagecheckerboard="0"
     inkscape:deskcolor="#d1d1d1" />
  <defs
     id="defs1">
    <style
       id="style1">.cls-1{fill:none;stroke:#000;stroke-width:2px;stroke-linecap:round;stroke-linejoin:round;}</style>
  </defs>
  <path
     style="color:#000000;fill:#000000;stroke-linecap:round;stroke-linejoin:round;-inkscape-stroke:none"
     d="M 19,3.4902344 A 1.0001,1.0001 0 0 0 18,4.4921875 L 18.035156,16.126953 6.8964844,12.548828 a 1.0001,1.0001 0 0 0 -1.2578125,0.642578 l -3.0898438,9.5 a 1.0001,1.0001 0 0 0 0.640625,1.259766 l 11.1933599,3.644531 -6.8613286,9.457031 a 1.0001,1.0001 0 0 0 0.2167968,1.392578 l 7.9999998,5.871094 a 1.0001,1.0001 0 0 0 1.400391,-0.21875 l 6.865234,-9.460937 6.910156,9.396484 a 1.0001,1.0001 0 0 0 1.398438,0.212891 l 8,-5.869141 a 1.0001,1.0001 0 0 0 0.216797,-1.394531 l -6.859375,-9.453125 11.136719,-3.578125 a 1.0001,1.0001 0 0 0 0.644531,-1.259766 L 42.402344,13.261719 A 1.0001,1.0001 0 0 0 41.144531,12.617188 L 30,16.197266 V 4.4902344 a 1.0001,1.0001 0 0 0 -1,-1 z m 1.003906,2 H 28 V 17.570312 a 1.0001,1.0001 0 0 0 1.306641,0.951172 l 11.5,-3.693359 2.433593,7.527344 -11.496093,3.693359 a 1.0001,1.0001 0 0 0 -0.503907,1.539063 l 7.085938,9.763671 -6.392578,4.691407 -7.126953,-9.695313 a 1.0001,1.0001 0 0 0 -1.615235,0.0059 l -7.080078,9.755859 -6.3886717,-4.6875 7.0859377,-9.763672 A 1.0001,1.0001 0 0 0 16.310547,26.119141 L 4.7597656,22.359375 7.2324219,14.757813 18.734375,18.451172 a 1.0001,1.0001 0 0 0 1.304687,-0.955078 z"
     id="path1" />
</svg>

<?xml version="1.0" encoding="UTF-8"?>
<svg id="Layer_2" data-name="Layer 2" version="1.1" viewBox="0 0 48 48" xmlns="http://www.w3.org/2000/svg">
 <defs id="defs4">
  <style id="style2">.cls-1{fill:none;stroke:#000;stroke-width:2px;stroke-linecap:round;stroke-linejoin:round;}</style>
 </defs>
 <path id="path6" d="m19 3.4902a1.0001 1.0001 0 0 0-1 1.002l0.035156 11.635-11.139-3.5781a1.0001 1.0001 0 0 0-1.2578 0.64258l-3.0898 9.5a1.0001 1.0001 0 0 0 0.64062 1.2598l11.193 3.6445-6.8613 9.457a1.0001 1.0001 0 0 0 0.2168 1.3926l8 5.8711a1.0001 1.0001 0 0 0 1.4004-0.21875l6.8652-9.4609 6.9102 9.3965a1.0001 1.0001 0 0 0 1.3984 0.21289l8-5.8691a1.0001 1.0001 0 0 0 0.2168-1.3945l-6.8594-9.4531 11.137-3.5781a1.0001 1.0001 0 0 0 0.64453-1.2598l-3.0488-9.4297a1.0001 1.0001 0 0 0-1.2578-0.64453l-11.145 3.5801v-11.707a1.0001 1.0001 0 0 0-1-1zm1.0039 2h7.9961v12.08a1.0001 1.0001 0 0 0 1.3066 0.95117l11.5-3.6934 2.4336 7.5273-11.496 3.6934a1.0001 1.0001 0 0 0-0.50391 1.5391l7.0859 9.7637-6.3926 4.6914-7.127-9.6953a1.0001 1.0001 0 0 0-1.6152 0.0059l-7.0801 9.7559-6.3887-4.6875 7.0859-9.7637a1.0001 1.0001 0 0 0-0.49805-1.5391l-11.551-3.7598 2.4727-7.6016 11.502 3.6934a1.0001 1.0001 0 0 0 1.3047-0.95508z" color="#000000" stroke-linecap="round" stroke-linejoin="round" style="-inkscape-stroke:none"/>
</svg>
